X:131
T: HIER IST GRAS DORT IST GRAS
N: K2209
O: Europa, Mitteleuropa, Deutschland, Brandenburg
R: Kinder - Lied, Reigen, Tanz - Spiel, Brautwerbung
M: 2/4
L: 1/8
K: G
 | ddB2 | ddB2 |
edcB | B2A
G | GABc | ddd
B | edcA | A2Gz

@@@ Tune index: 7468
